docs/.gitbook/assets/icon-text-selection-16@light.svg

<svg width="32" height="32" viewBox="0 0 16 16" fill="none" xmlns="http://www.w3.org/2000/svg">
<rect x="0" y="0" width="16" height="16" fill="#fff"/>
<path fill-rule="evenodd" clip-rule="evenodd" d="M8.75 1C8.33579 1 8 1.33579 8 1.75C8 2.16421 8.33579 2.5 8.75 2.5H9.13795C9.19643 2.5 9.25307 2.5205 9.298 2.55794L10.25 3.35128V12.6487L9.298 13.4421C9.25307 13.4795 9.19643 13.5 9.13795 13.5H8.75C8.33579 13.5 8 13.8358 8 14.25C8 14.6642 8.33579 15 8.75 15H9.13795C9.54734 15 9.94377 14.8565 10.2583 14.5944L11 13.9763L11.7417 14.5944C12.0562 14.8565 12.4527 15 12.8621 15H13.25C13.6642 15 14 14.6642 14 14.25C14 13.8358 13.6642 13.5 13.25 13.5H12.8621C12.8036 13.5 12.7469 13.4795 12.702 13.4421L11.75 12.6487V3.35128L12.702 2.55794C12.7469 2.5205 12.8036 2.5 12.8621 2.5H13.25C13.6642 2.5 14 2.16421 14 1.75C14 1.33579 13.6642 1 13.25 1H12.8621C12.4527 1 12.0562 1.14353 11.7417 1.40561L11 2.02372L10.2583 1.40561C9.94377 1.14353 9.54734 1 9.13795 1H8.75ZM3 3.36243C2.44772 3.36243 2 3.81014 2 4.36243V11.6376C2 12.1899 2.44772 12.6376 3 12.6376H7.19513C7.74741 12.6376 8.19513 12.1899 8.19513 11.6376V4.36243C8.19513 3.81014 7.74741 3.36243 7.19513 3.36243H3Z" fill="#000"/>
</svg>

<svg xmlns="http://www.w3.org/2000/svg" width="32" height="32" fill="none" viewBox="0 0 16 16"><path fill="#fff" d="M0 0h16v16H0z"/><path fill="#000" fill-rule="evenodd" d="M8.75 1a.75.75 0 0 0 0 1.5h.388a.25.25 0 0 1 .16.058l.952.793v9.298l-.952.793a.25.25 0 0 1-.16.058H8.75a.75.75 0 0 0 0 1.5h.388c.41 0 .806-.143 1.12-.406l.742-.618.742.618a1.75 1.75 0 0 0 1.12.406h.388a.75.75 0 0 0 0-1.5h-.388a.25.25 0 0 1-.16-.058l-.952-.793V3.35l.952-.793a.25.25 0 0 1 .16-.058h.388a.75.75 0 0 0 0-1.5h-.388c-.41 0-.806.144-1.12.406L11 2.024l-.742-.618A1.75 1.75 0 0 0 9.138 1zM3 3.362a1 1 0 0 0-1 1v7.276a1 1 0 0 0 1 1h4.195a1 1 0 0 0 1-1V4.362a1 1 0 0 0-1-1z" clip-rule="evenodd"/></svg>
